X: 0
T: Carol
Z: Richard S. Willis
Z: Copyright © 2006 by Douglas D. Anderson
Z: Released To The Public Domain
L: 1/4
M: 6/8
Q: 1/4=80
V: P1 name="Church Organ"
%%MIDI program 1 19
V: P2 name="French Horn"
%%MIDI program 2 60
V: P3 name="Trombone"
%%MIDI program 3 57
V: P4 name="Tuba"
%%MIDI program 4 58
K: Bb
[V: P1]  F/ | d c/ (c/B/) G/ | F G/ F F/ | (G/A/) B/ (B/c/) d/ | (c3/ c) F/ | d A/ (c/B/) G/ | F G/ F F/ | G G/ (A/G/) F/ | (B3/ B) d/ | d D/ (D/=E/) ^F/ | (G A/) B d/ | (c/B/) A/ (G/A/) G/ | (F3/ F) F/ | d A/ (c/B/) G/ | F G/ F F/ | G G/ (A/G/) F/ | (B3/ B)|]
w: O lit- tle town_ of Beth- le hem, how still_ we see_ thee lie!_ A- bove thy deep_ and dream- less sleep the si- lent stars_ go by._ Yet in thy dark_ streets shin-_ eth the e-_ ver last_ ing Light;_ The hopes and fears_ of all the years are met in thee_ to- night._
[V: P2]  D/ | D D/ E E/ | D E/ D D/ | E E/ =E E/ | (F3/ F) F/ | D D/ E E/ | D E/ D F/ | E E/ E E/ | (D3/ D) D/ | D D/ (D/=E/) D/ | D D/ D D/ | F F/ =E E/ | (F3/ F) E/ | D D/ E E/ | D E/ D F/ | E E/ E E/ | (D3/ D)|]
[V: P3]  F,/ | F, ^F,/ G, A,/ | B, F,/ F, B,/ | B, B,/ B, B,/ | (A,3/ A,) F,/ | F, ^F,/ G, A,/ | B, F,/ F, B,/ | B, C/ (C/B,/) A,/ | (B,3/ B,) D,/ | D, ^F,/ (F,/G,/) A,/ | G, ^F,/ G, G,/ | (A,/D/) C/ (B,/C/) B,/ | (A,3/ A,) A,/ | B, ^F,/ G, A,/ | B, F,/ F, B,/ | B, C/ (C/B,/) A,/ | (B,3/ B,)|]
[V: P4]  B,,/ | B,, B,,/ B,, B,,/ | B,, A,,/ B,, B,,/ | (E,/F,/) G,/ G, C,/ | (F,3/ F,) F,/ | B,, B,,/ B,, B,,/ | B,, A,,/ B,, D,/ | E, C,/ F, F,/ | (B,,3/ B,,) D,/ | D, D,/ D, C,/ | B,, D,/ G, B,,/ | C, C,/ C, C,/ | (F,3/ F,) F,/ | B,, B,,/ B,, B,,/ | B,, A,,/ B,, D,/ | E, C,/ F, F,/ | (B,,3/ B,,)|]

